X: 64
T:Lady Susan Gordon's Reel
B:William Marshall's Scottish Airs, Melodies, Strathspeys, Reels &c (1822)
C:William Marshall
L:1/8
M:C|
O:Scotland
R:Reel
Z:Clark Bernst + Richard Robinson
%%Page:10 - 2
F:http://richardrobinson.tunebook.org.uk/tune/3907
%%TBL:{"version":1,"type":"tune","id":"3907"}
K:Bb
%%staves {1 2}
V:1
BfdB fBdB | GBFD EC- C2 | BfdB fBdB | (ga/b/) (fe) (dB) ~B2 :| 
(D/E/F) (BF) dFBF | (E/F/G) (cG) eGcG | (D/E/F) (BF) dFBF | FAce dB- ~B2 | 
(D/E/F) (BF) dFBF | (E/F/G) (cG) eGcG | (D/E/F) (BF) dBfd | (ga/b/) (fe) dB ~B2 |]
V:2 middle=d clef=bass
L:1/4
BBbb | edcc | bBBd | efBB :| \
BBBB | ccec | BBdB | fFBB | BBBB | ccec | BBBd | efBB |]

